X: 29801
T: O'Carolan's Fancy
R: jig
M: 6/8
K: Dmajor
FDF AFA|dAd fdA|B/c/dB AdF|EFE EAG|
FDF AFA|dAd fdA|B/c/d/B AdF|1 EDC D2 E:|2 EDC D2 A/B/c||

